bernoullicharts/2014_lin_x_8_0_mean.svg

<?xml version="1.0" encoding="utf-8" standalone="no"?>
<!DOCTYPE svg PUBLIC "-//W3C//DTD SVG 1.1//EN"
  "http://www.w3.org/Graphics/SVG/1.1/DTD/svg11.dtd">
<!-- Created with matplotlib (https://matplotlib.org/) -->
<svg height="345.6pt" version="1.1" viewBox="0 0 460.8 345.6" width="460.8pt" xmlns="http://www.w3.org/2000/svg" xmlns:xlink="http://www.w3.org/1999/xlink">
 <defs>
  <style type="text/css">
*{stroke-linecap:butt;stroke-linejoin:round;}
  </style>
 </defs>
 <g id="figure_1">
  <g id="patch_1">
   <path d="M 0 345.6 
L 460.8 345.6 
L 460.8 0 
L 0 0 
z
" style="fill:#ffffff;"/>
  </g>
  <g id="axes_1">
   <g id="patch_2">
    <path d="M 57.6 307.584 
L 414.72 307.584 
L 414.72 41.472 
L 57.6 41.472 
z
" style="fill:#ffffff;"/>
   </g>
   <g id="matplotlib.axis_1">
    <g id="xtick_1">
     <g id="line2d_1">
      <defs>
       <path d="M 0 0 
L 0 3.5 
" id="m2ab72401d0" style="stroke:#000000;stroke-width:0.8;"/>
      </defs>
      <g>
       <use style="stroke:#000000;stroke-width:0.8;" x="73.564834" xlink:href="#m2ab72401d0" y="307.584"/>
      </g>
     </g>
     <g id="text_1">
      <text style="font-family:DejaVu Sans;font-size:10px;font-style:normal;font-weight:normal;text-anchor:middle;" transform="rotate(-0, 73.564834, 322.182437)" x="73.564834" y="322.182437">0.00</text>
     </g>
    </g>
    <g id="xtick_2">
     <g id="line2d_2">
      <g>
       <use style="stroke:#000000;stroke-width:0.8;" x="127.143549" xlink:href="#m2ab72401d0" y="307.584"/>
      </g>
     </g>
     <g id="text_2">
      <text style="font-family:DejaVu Sans;font-size:10px;font-style:normal;font-weight:normal;text-anchor:middle;" transform="rotate(-0, 127.143549, 322.182437)" x="127.143549" y="322.182437">0.02</text>
     </g>
    </g>
    <g id="xtick_3">
     <g id="line2d_3">
      <g>
       <use style="stroke:#000000;stroke-width:0.8;" x="180.722265" xlink:href="#m2ab72401d0" y="307.584"/>
      </g>
     </g>
     <g id="text_3">
      <text style="font-family:DejaVu Sans;font-size:10px;font-style:normal;font-weight:normal;text-anchor:middle;" transform="rotate(-0, 180.722265, 322.182437)" x="180.722265" y="322.182437">0.04</text>
     </g>
    </g>
    <g id="xtick_4">
     <g id="line2d_4">
      <g>
       <use style="stroke:#000000;stroke-width:0.8;" x="234.300981" xlink:href="#m2ab72401d0" y="307.584"/>
      </g>
     </g>
     <g id="text_4">
      <text style="font-family:DejaVu Sans;font-size:10px;font-style:normal;font-weight:normal;text-anchor:middle;" transform="rotate(-0, 234.300981, 322.182437)" x="234.300981" y="322.182437">0.06</text>
     </g>
    </g>
    <g id="xtick_5">
     <g id="line2d_5">
      <g>
       <use style="stroke:#000000;stroke-width:0.8;" x="287.879697" xlink:href="#m2ab72401d0" y="307.584"/>
      </g>
     </g>
     <g id="text_5">
      <text style="font-family:DejaVu Sans;font-size:10px;font-style:normal;font-weight:normal;text-anchor:middle;" transform="rotate(-0, 287.879697, 322.182437)" x="287.879697" y="322.182437">0.08</text>
     </g>
    </g>
    <g id="xtick_6">
     <g id="line2d_6">
      <g>
       <use style="stroke:#000000;stroke-width:0.8;" x="341.458412" xlink:href="#m2ab72401d0" y="307.584"/>
      </g>
     </g>
     <g id="text_6">
      <text style="font-family:DejaVu Sans;font-size:10px;font-style:normal;font-weight:normal;text-anchor:middle;" transform="rotate(-0, 341.458412, 322.182437)" x="341.458412" y="322.182437">0.10</text>
     </g>
    </g>
    <g id="xtick_7">
     <g id="line2d_7">
      <g>
       <use style="stroke:#000000;stroke-width:0.8;" x="395.037128" xlink:href="#m2ab72401d0" y="307.584"/>
      </g>
     </g>
     <g id="text_7">
      <text style="font-family:DejaVu Sans;font-size:10px;font-style:normal;font-weight:normal;text-anchor:middle;" transform="rotate(-0, 395.037128, 322.182437)" x="395.037128" y="322.182437">0.12</text>
     </g>
    </g>
    <g id="text_8">
     <text style="font-family:DejaVu Sans;font-size:10px;font-style:normal;font-weight:normal;text-anchor:middle;" transform="rotate(-0, 236.16, 335.860562)" x="236.16" y="335.860562">Input Coin's Heads Probability (λ)</text>
    </g>
   </g>
   <g id="matplotlib.axis_2">
    <g id="ytick_1">
     <g id="line2d_8">
      <defs>
       <path d="M 0 0 
L -3.5 0 
" id="ma8871c298f" style="stroke:#000000;stroke-width:0.8;"/>
      </defs>
      <g>
       <use style="stroke:#000000;stroke-width:0.8;" x="57.6" xlink:href="#ma8871c298f" y="295.488"/>
      </g>
     </g>
     <g id="text_9">
      <text style="font-family:DejaVu Sans;font-size:10px;font-style:normal;font-weight:normal;text-anchor:end;" transform="rotate(-0, 50.6, 299.287219)" x="50.6" y="299.287219">0.0</text>
     </g>
    </g>
    <g id="ytick_2">
     <g id="line2d_9">
      <g>
       <use style="stroke:#000000;stroke-width:0.8;" x="57.6" xlink:href="#ma8871c298f" y="245.623166"/>
      </g>
     </g>
     <g id="text_10">
      <text style="font-family:DejaVu Sans;font-size:10px;font-style:normal;font-weight:normal;text-anchor:end;" transform="rotate(-0, 50.6, 249.422384)" x="50.6" y="249.422384">0.2</text>
     </g>
    </g>
    <g id="ytick_3">
     <g id="line2d_10">
      <g>
       <use style="stroke:#000000;stroke-width:0.8;" x="57.6" xlink:href="#ma8871c298f" y="195.758331"/>
      </g>
     </g>
     <g id="text_11">
      <text style="font-family:DejaVu Sans;font-size:10px;font-style:normal;font-weight:normal;text-anchor:end;" transform="rotate(-0, 50.6, 199.55755)" x="50.6" y="199.55755">0.4</text>
     </g>
    </g>
    <g id="ytick_4">
     <g id="line2d_11">
      <g>
       <use style="stroke:#000000;stroke-width:0.8;" x="57.6" xlink:href="#ma8871c298f" y="145.893497"/>
      </g>
     </g>
     <g id="text_12">
      <text style="font-family:DejaVu Sans;font-size:10px;font-style:normal;font-weight:normal;text-anchor:end;" transform="rotate(-0, 50.6, 149.692715)" x="50.6" y="149.692715">0.6</text>
     </g>
    </g>
    <g id="ytick_5">
     <g id="line2d_12">
      <g>
       <use style="stroke:#000000;stroke-width:0.8;" x="57.6" xlink:href="#ma8871c298f" y="96.028662"/>
      </g>
     </g>
     <g id="text_13">
      <text style="font-family:DejaVu Sans;font-size:10px;font-style:normal;font-weight:normal;text-anchor:end;" transform="rotate(-0, 50.6, 99.827881)" x="50.6" y="99.827881">0.8</text>
     </g>
    </g>
    <g id="ytick_6">
     <g id="line2d_13">
      <g>
       <use style="stroke:#000000;stroke-width:0.8;" x="57.6" xlink:href="#ma8871c298f" y="46.163828"/>
      </g>
     </g>
     <g id="text_14">
      <text style="font-family:DejaVu Sans;font-size:10px;font-style:normal;font-weight:normal;text-anchor:end;" transform="rotate(-0, 50.6, 49.963046)" x="50.6" y="49.963046">1.0</text>
     </g>
    </g>
    <g id="text_15">
     <text style="font-family:DejaVu Sans;font-size:10px;font-style:normal;font-weight:normal;text-anchor:middle;" transform="rotate(-90, 28.617187, 174.528)" x="28.617187" y="174.528">Simulated Mean / Function Value</text>
    </g>
   </g>
   <g id="line2d_14">
    <path clip-path="url(#p761c948870)" d="M 73.832727 295.288541 
L 100.887273 275.145162 
L 127.941818 255.001784 
L 154.996364 234.858405 
L 182.050909 214.715027 
L 209.105455 194.571649 
L 236.16 174.42827 
L 263.214545 154.284892 
L 290.269091 134.141514 
L 317.323636 113.998135 
L 344.378182 93.854757 
L 371.432727 73.711378 
L 398.487273 53.568 
" style="fill:none;stroke:#1f77b4;stroke-linecap:square;stroke-width:1.5;"/>
   </g>
   <g id="line2d_15">
    <path clip-path="url(#p761c948870)" d="M 73.832727 295.488 
L 100.887273 273.547473 
L 127.941818 261.579913 
L 154.996364 240.138034 
L 182.050909 211.21643 
L 209.105455 198.750221 
" style="fill:none;stroke:#ff7f0e;stroke-linecap:square;stroke-width:1.5;"/>
   </g>
   <g id="line2d_16">
    <path clip-path="url(#p761c948870)" d="M 73.832727 295.488 
L 100.887273 276.040715 
L 127.941818 252.604242 
L 154.996364 238.642089 
L 182.050909 206.229946 
L 209.105455 188.777254 
L 236.16 164.842134 
" style="fill:none;stroke:#2ca02c;stroke-linecap:square;stroke-width:1.5;"/>
   </g>
   <g id="line2d_17">
    <path clip-path="url(#p761c948870)" d="M 73.832727 294.490703 
L 100.887273 276.040715 
L 127.941818 255.097484 
L 154.996364 229.16777 
L 182.050909 215.205616 
L 209.105455 194.262386 
L 236.16 178.305639 
" style="fill:none;stroke:#d62728;stroke-linecap:square;stroke-width:1.5;"/>
   </g>
   <g id="line2d_18">
    <path clip-path="url(#p761c948870)" d="M 73.832727 295.488 
L 100.887273 275.542066 
L 127.941818 259.585319 
L 154.996364 233.156957 
L 182.050909 217.20021 
M 236.16 181.796177 
L 263.214545 157.362408 
" style="fill:none;stroke:#9467bd;stroke-linecap:square;stroke-width:1.5;"/>
   </g>
   <g id="line2d_19">
    <path clip-path="url(#p761c948870)" d="M 100.887273 274.54477 
L 127.941818 257.590726 
L 154.996364 236.148847 
L 182.050909 213.709671 
L 209.105455 195.758331 
L 236.16 171.324562 
" style="fill:none;stroke:#8c564b;stroke-linecap:square;stroke-width:1.5;"/>
   </g>
   <g id="patch_3">
    <path d="M 57.6 307.584 
L 57.6 41.472 
" style="fill:none;stroke:#000000;stroke-linecap:square;stroke-linejoin:miter;stroke-width:0.8;"/>
   </g>
   <g id="patch_4">
    <path d="M 414.72 307.584 
L 414.72 41.472 
" style="fill:none;stroke:#000000;stroke-linecap:square;stroke-linejoin:miter;stroke-width:0.8;"/>
   </g>
   <g id="patch_5">
    <path d="M 57.6 307.584 
L 414.72 307.584 
" style="fill:none;stroke:#000000;stroke-linecap:square;stroke-linejoin:miter;stroke-width:0.8;"/>
   </g>
   <g id="patch_6">
    <path d="M 57.6 41.472 
L 414.72 41.472 
" style="fill:none;stroke:#000000;stroke-linecap:square;stroke-linejoin:miter;stroke-width:0.8;"/>
   </g>
   <g id="text_16">
    <text style="font-family:DejaVu Sans;font-size:12px;font-style:normal;font-weight:normal;" transform="translate(184.459688 22.034625)">Simulated Means</text>
    <text style="font-family:DejaVu Sans;font-size:12px;font-style:normal;font-weight:normal;" transform="translate(132.609375 35.472)">(Wasserstein Distances in Legend)</text>
   </g>
   <g id="legend_1">
    <g id="patch_7">
     <path d="M 71.387188 137.54075 
L 407.72 137.54075 
Q 409.72 137.54075 409.72 135.54075 
L 409.72 48.472 
Q 409.72 46.472 407.72 46.472 
L 71.387188 46.472 
Q 69.387188 46.472 69.387188 48.472 
L 69.387188 135.54075 
Q 69.387188 137.54075 71.387188 137.54075 
z
" style="fill:#ffffff;opacity:0.8;stroke:#cccccc;stroke-linejoin:miter;"/>
    </g>
    <g id="line2d_20">
     <path d="M 73.387188 54.570438 
L 93.387188 54.570438 
" style="fill:none;stroke:#1f77b4;stroke-linecap:square;stroke-width:1.5;"/>
    </g>
    <g id="line2d_21"/>
    <g id="text_17">
     <text style="font-family:DejaVu Sans;font-size:10px;font-style:normal;font-weight:normal;text-anchor:start;" transform="rotate(-0, 101.387188, 58.070438)" x="101.387188" y="58.070438">x*8.0</text>
    </g>
    <g id="line2d_22">
     <path d="M 73.387188 69.248563 
L 93.387188 69.248563 
" style="fill:none;stroke:#ff7f0e;stroke-linecap:square;stroke-width:1.5;"/>
    </g>
    <g id="line2d_23"/>
    <g id="text_18">
     <text style="font-family:DejaVu Sans;font-size:10px;font-style:normal;font-weight:normal;text-anchor:start;" transform="rotate(-0, 101.387188, 72.748563)" x="101.387188" y="72.748563">Simul. Mean of 2014 Lin. x*8.0 (WD=0.014260)</text>
    </g>
    <g id="line2d_24">
     <path d="M 73.387188 83.926688 
L 93.387188 83.926688 
" style="fill:none;stroke:#2ca02c;stroke-linecap:square;stroke-width:1.5;"/>
    </g>
    <g id="line2d_25"/>
    <g id="text_19">
     <text style="font-family:DejaVu Sans;font-size:10px;font-style:normal;font-weight:normal;text-anchor:start;" transform="rotate(-0, 101.387188, 87.426688)" x="101.387188" y="87.426688">Simul. Mean of 2016 Lin. x*8.0 (WD=0.017844)</text>
    </g>
    <g id="line2d_26">
     <path d="M 73.387188 98.604813 
L 93.387188 98.604813 
" style="fill:none;stroke:#d62728;stroke-linecap:square;stroke-width:1.5;"/>
    </g>
    <g id="line2d_27"/>
    <g id="text_20">
     <text style="font-family:DejaVu Sans;font-size:10px;font-style:normal;font-weight:normal;text-anchor:start;" transform="rotate(-0, 101.387188, 102.104813)" x="101.387188" y="102.104813">Simul. Mean of Low-Mean Lin. x*8.0 (WD=0.006966)</text>
    </g>
    <g id="line2d_28">
     <path d="M 73.387188 113.282938 
L 93.387188 113.282938 
" style="fill:none;stroke:#9467bd;stroke-linecap:square;stroke-width:1.5;"/>
    </g>
    <g id="line2d_29"/>
    <g id="text_21">
     <text style="font-family:DejaVu Sans;font-size:10px;font-style:normal;font-weight:normal;text-anchor:start;" transform="rotate(-0, 101.387188, 116.782938)" x="101.387188" y="116.782938">Simul. Mean of 2019x*8.0 (WD=0.011352)</text>
    </g>
    <g id="line2d_30">
     <path d="M 73.387188 127.961063 
L 93.387188 127.961063 
" style="fill:none;stroke:#8c564b;stroke-linecap:square;stroke-width:1.5;"/>
    </g>
    <g id="line2d_31"/>
    <g id="text_22">
     <text style="font-family:DejaVu Sans;font-size:10px;font-style:normal;font-weight:normal;text-anchor:start;" transform="rotate(-0, 101.387188, 131.461063)" x="101.387188" y="131.461063">Simul. Mean of Low-Mean M=0.49999 x*8.0 (WD=0.006535)</text>
    </g>
   </g>
  </g>
 </g>
 <defs>
  <clipPath id="p761c948870">
   <rect height="266.112" width="357.12" x="57.6" y="41.472"/>
  </clipPath>
 </defs>
</svg>

<svg height="460.8" viewBox="0 0 460.8 345.6" width="614.4" xmlns="http://www.w3.org/2000/svg" xmlns:xlink="http://www.w3.org/1999/xlink"><defs><style>*{stroke-linecap:butt;stroke-linejoin:round}</style></defs><g id="figure_1"><path d="M0 345.6h460.8V0H0z" fill="#fff" id="patch_1"/><g id="axes_1"><path d="M57.6 307.584h357.12V41.472H57.6z" fill="#fff" id="patch_2"/><g id="matplotlib.axis_1"><g id="xtick_1"><g id="line2d_1"><defs><path d="M0 0v3.5" id="m2ab72401d0" stroke="#000" stroke-width=".8"/></defs><use x="73.565" xlink:href="#m2ab72401d0" y="307.584" stroke="#000" stroke-width=".8"/></g><text x="73.565" y="322.182" font-family="DejaVu Sans" font-size="10" font-weight="400" text-anchor="middle" id="text_1">0.00</text></g><g id="xtick_2"><use x="127.144" xlink:href="#m2ab72401d0" y="307.584" stroke="#000" stroke-width=".8" id="line2d_2"/><text x="127.144" y="322.182" font-family="DejaVu Sans" font-size="10" font-weight="400" text-anchor="middle" id="text_2">0.02</text></g><g id="xtick_3"><use x="180.722" xlink:href="#m2ab72401d0" y="307.584" stroke="#000" stroke-width=".8" id="line2d_3"/><text x="180.722" y="322.182" font-family="DejaVu Sans" font-size="10" font-weight="400" text-anchor="middle" id="text_3">0.04</text></g><g id="xtick_4"><use x="234.301" xlink:href="#m2ab72401d0" y="307.584" stroke="#000" stroke-width=".8" id="line2d_4"/><text x="234.301" y="322.182" font-family="DejaVu Sans" font-size="10" font-weight="400" text-anchor="middle" id="text_4">0.06</text></g><g id="xtick_5"><use x="287.88" xlink:href="#m2ab72401d0" y="307.584" stroke="#000" stroke-width=".8" id="line2d_5"/><text x="287.88" y="322.182" font-family="DejaVu Sans" font-size="10" font-weight="400" text-anchor="middle" id="text_5">0.08</text></g><g id="xtick_6"><use x="341.458" xlink:href="#m2ab72401d0" y="307.584" stroke="#000" stroke-width=".8" id="line2d_6"/><text x="341.458" y="322.182" font-family="DejaVu Sans" font-size="10" font-weight="400" text-anchor="middle" id="text_6">0.10</text></g><g id="xtick_7"><use x="395.037" xlink:href="#m2ab72401d0" y="307.584" stroke="#000" stroke-width=".8" id="line2d_7"/><text x="395.037" y="322.182" font-family="DejaVu Sans" font-size="10" font-weight="400" text-anchor="middle" id="text_7">0.12</text></g><text x="236.16" y="335.861" font-family="DejaVu Sans" font-size="10" font-weight="400" text-anchor="middle" id="text_8">Input Coin&apos;s Heads Probability (λ)</text></g><g id="matplotlib.axis_2"><g id="ytick_1"><g id="line2d_8"><defs><path d="M0 0h-3.5" id="ma8871c298f" stroke="#000" stroke-width=".8"/></defs><use x="57.6" xlink:href="#ma8871c298f" y="295.488" stroke="#000" stroke-width=".8"/></g><text x="50.6" y="299.287" font-family="DejaVu Sans" font-size="10" font-weight="400" text-anchor="end" id="text_9">0.0</text></g><g id="ytick_2"><use x="57.6" xlink:href="#ma8871c298f" y="245.623" stroke="#000" stroke-width=".8" id="line2d_9"/><text x="50.6" y="249.422" font-family="DejaVu Sans" font-size="10" font-weight="400" text-anchor="end" id="text_10">0.2</text></g><g id="ytick_3"><use x="57.6" xlink:href="#ma8871c298f" y="195.758" stroke="#000" stroke-width=".8" id="line2d_10"/><text x="50.6" y="199.558" font-family="DejaVu Sans" font-size="10" font-weight="400" text-anchor="end" id="text_11">0.4</text></g><g id="ytick_4"><use x="57.6" xlink:href="#ma8871c298f" y="145.893" stroke="#000" stroke-width=".8" id="line2d_11"/><text x="50.6" y="149.693" font-family="DejaVu Sans" font-size="10" font-weight="400" text-anchor="end" id="text_12">0.6</text></g><g id="ytick_5"><use x="57.6" xlink:href="#ma8871c298f" y="96.029" stroke="#000" stroke-width=".8" id="line2d_12"/><text x="50.6" y="99.828" font-family="DejaVu Sans" font-size="10" font-weight="400" text-anchor="end" id="text_13">0.8</text></g><g id="ytick_6"><use x="57.6" xlink:href="#ma8871c298f" y="46.164" stroke="#000" stroke-width=".8" id="line2d_13"/><text x="50.6" y="49.963" font-family="DejaVu Sans" font-size="10" font-weight="400" text-anchor="end" id="text_14">1.0</text></g><text transform="rotate(-90 28.617 174.528)" x="28.617" y="174.528" font-family="DejaVu Sans" font-size="10" font-weight="400" text-anchor="middle" id="text_15">Simulated Mean / Function Value</text></g><path clip-path="url(#p761c948870)" d="M73.833 295.289l27.054-20.144 27.055-20.143 27.054-20.144 27.055-20.143 27.054-20.143 27.055-20.144 27.055-20.143 27.054-20.143 27.055-20.144 27.054-20.143 27.055-20.144 27.054-20.143" fill="none" stroke="#1f77b4" stroke-linecap="square" stroke-width="1.5" id="line2d_14"/><path clip-path="url(#p761c948870)" d="M73.833 295.488l27.054-21.94 27.055-11.968 27.054-21.442 27.055-28.922 27.054-12.466" fill="none" stroke="#ff7f0e" stroke-linecap="square" stroke-width="1.5" id="line2d_15"/><path clip-path="url(#p761c948870)" d="M73.833 295.488l27.054-19.447 27.055-23.437 27.054-13.962 27.055-32.412 27.054-17.453 27.055-23.935" fill="none" stroke="#2ca02c" stroke-linecap="square" stroke-width="1.5" id="line2d_16"/><path clip-path="url(#p761c948870)" d="M73.833 294.49l27.054-18.45 27.055-20.943 27.054-25.93 27.055-13.961 27.054-20.944 27.055-15.956" fill="none" stroke="#d62728" stroke-linecap="square" stroke-width="1.5" id="line2d_17"/><path clip-path="url(#p761c948870)" d="M73.833 295.488l27.054-19.946 27.055-15.957 27.054-26.428 27.055-15.957m54.109-35.404l27.055-24.434" fill="none" stroke="#9467bd" stroke-linecap="square" stroke-width="1.5" id="line2d_18"/><path clip-path="url(#p761c948870)" d="M100.887 274.545l27.055-16.954 27.054-21.442 27.055-22.44 27.054-17.95 27.055-24.434" fill="none" stroke="#8c564b" stroke-linecap="square" stroke-width="1.5" id="line2d_19"/><path d="M57.6 307.584V41.472" fill="none" stroke="#000" stroke-linecap="square" stroke-width=".8" id="patch_3"/><path d="M414.72 307.584V41.472" fill="none" stroke="#000" stroke-linecap="square" stroke-width=".8" id="patch_4"/><path d="M57.6 307.584h357.12" fill="none" stroke="#000" stroke-linecap="square" stroke-width=".8" id="patch_5"/><path d="M57.6 41.472h357.12" fill="none" stroke="#000" stroke-linecap="square" stroke-width=".8" id="patch_6"/><g id="text_16" font-family="DejaVu Sans" font-size="12" font-weight="400"><text transform="translate(184.46 22.035)">Simulated Means</text><text transform="translate(132.61 35.472)">(Wasserstein Distances in Legend)</text></g><g id="legend_1"><path d="M71.387 137.54H407.72q2 0 2-2V48.473q0-2-2-2H71.387q-2 0-2 2v87.069q0 2 2 2z" fill="#fff" opacity=".8" stroke="#ccc" id="patch_7"/><path d="M73.387 54.57h20" fill="none" stroke="#1f77b4" stroke-linecap="square" stroke-width="1.5" id="line2d_20"/><text x="101.387" y="58.07" font-family="DejaVu Sans" font-size="10" font-weight="400" id="text_17">x*8.0</text><path d="M73.387 69.249h20" fill="none" stroke="#ff7f0e" stroke-linecap="square" stroke-width="1.5" id="line2d_22"/><text x="101.387" y="72.749" font-family="DejaVu Sans" font-size="10" font-weight="400" id="text_18">Simul. Mean of 2014 Lin. x*8.0 (WD=0.014260)</text><path d="M73.387 83.927h20" fill="none" stroke="#2ca02c" stroke-linecap="square" stroke-width="1.5" id="line2d_24"/><text x="101.387" y="87.427" font-family="DejaVu Sans" font-size="10" font-weight="400" id="text_19">Simul. Mean of 2016 Lin. x*8.0 (WD=0.017844)</text><path d="M73.387 98.605h20" fill="none" stroke="#d62728" stroke-linecap="square" stroke-width="1.5" id="line2d_26"/><text x="101.387" y="102.105" font-family="DejaVu Sans" font-size="10" font-weight="400" id="text_20">Simul. Mean of Low-Mean Lin. x*8.0 (WD=0.006966)</text><path d="M73.387 113.283h20" fill="none" stroke="#9467bd" stroke-linecap="square" stroke-width="1.5" id="line2d_28"/><text x="101.387" y="116.783" font-family="DejaVu Sans" font-size="10" font-weight="400" id="text_21">Simul. Mean of 2019x*8.0 (WD=0.011352)</text><path d="M73.387 127.961h20" fill="none" stroke="#8c564b" stroke-linecap="square" stroke-width="1.5" id="line2d_30"/><text x="101.387" y="131.461" font-family="DejaVu Sans" font-size="10" font-weight="400" id="text_22">Simul. Mean of Low-Mean M=0.49999 x*8.0 (WD=0.006535)</text></g></g></g><defs><clipPath id="p761c948870"><path d="M57.6 41.472h357.12v266.112H57.6z"/></clipPath></defs></svg>
